src/assets/icons/weeks,simple,11.svg

<svg width="48" height="48" viewBox="0 0 48 48" fill="none" xmlns="http://www.w3.org/2000/svg">
<rect opacity="0.2" x="5" y="5" width="38" height="38" rx="4" fill="black"/>
<path d="M5 13C5 9.22876 5 7.34315 6.17157 6.17157C7.34315 5 9.22876 5 13 5H35C38.7712 5 40.6569 5 41.8284 6.17157C43 7.34315 43 9.22876 43 13V15H5V13Z" fill="black"/>
<path d="M21.2663 20.5455H17.7976L13.4766 23.2812V26.554L17.4737 24.0483H17.576V38H21.2663V20.5455ZM33.0085 20.5455H29.5398L25.2188 23.2812V26.554L29.2159 24.0483H29.3182V38H33.0085V20.5455Z" fill="black"/>
</svg>

<svg xmlns="http://www.w3.org/2000/svg" width="48" height="48" fill="none" viewBox="0 0 48 48">
  <rect width="38" height="38" x="5" y="5" fill="#000" opacity=".2" rx="4"/>
  <path fill="#000" d="M5 13c0-3.771 0-5.657 1.172-6.828C7.343 5 9.229 5 13 5h22c3.771 0 5.657 0 6.828 1.172C43 7.343 43 9.229 43 13v2H5v-2zM21.266 20.546h-3.468l-4.321 2.735v3.273l3.997-2.506h.102V38h3.69V20.546zm11.742 0H29.54l-4.321 2.735v3.273l3.997-2.506h.102V38h3.69V20.546z"/>
</svg>
